X: 172
T: SINGLE JIG: Seanchaí Muimhneach
T: An Seanchaí Muimhneach
C: C: Trad.; S: Denis Murphy
C: Set Leaders: Alexey, Anton, Sophie
Z: Anton Zille ed.; jaychoons at The Session
N: https://thesession.org/members/26966/sets/68391
R: Single Jig
M: 12/8
L: 1/8
Q: 3/8=116
K: Edor
|:B2E EFA B2A Bcd|B2E EFA BAG FED|
B2E EFA B2A Bcd|AFE DEF A2G FED:||
|:g2e fed e2B BAF|B2E EFA BAG FED|
gfe fed edB d2B|AFE DEF A2G FED:||
|:E3 EFE EFE E3|EFE EFA BAG FED|
~E3 EFE EFE B/c/dB|AFE DEF A2G FED:||

